web/img/favicon.svg

<svg width="32" height="32" viewBox="0 0 32 32" fill="none" xmlns="http://www.w3.org/2000/svg">
<path d="M9.95917 12.2226C9.95917 12.2226 16.8773 8.47052 26.7262 10.7786C26.7262 10.7786 28.682 1.36068 21.2968 2.54372C21.3026 2.54372 14.8982 3.72676 9.95917 12.2226Z" fill="#252F5C"/>
<path d="M10.3546 21.0727C10.3546 21.0727 7.34028 20.5824 6.50004 19.0756C5.64217 17.5209 6.99949 15.9363 8.45669 14.9855C12.4229 12.4023 16.7592 12.1452 18.1106 11.9898C18.1106 11.9838 8.85624 15.7689 10.3546 21.0727Z" fill="#252F5C"/>
<path d="M6.31241 21.6043C6.31241 21.6043 16.0172 27.072 26.2621 12.9213C26.2621 12.9213 21.9645 29.2311 11.9486 30.153C11.9486 30.153 4.39259 30.5498 6.31241 21.6043Z" fill="#252F5C"/>
</svg>

<svg xmlns="http://www.w3.org/2000/svg" width="32" height="32" fill="none"><path fill="#fff" d="M0 0h32v32H0z"/><path fill="#252F5C" d="M9.96 12.223s6.917-3.752 16.766-1.444c0 0 1.956-9.418-5.43-8.235.007 0-6.398 1.183-11.337 9.679Zm.395 8.85s-3.015-.49-3.855-1.997c-.858-1.555.5-3.14 1.957-4.09 3.966-2.584 8.302-2.84 9.654-2.996 0-.006-9.255 3.779-7.756 9.083Z"/><path fill="#252F5C" d="M6.312 21.604s9.705 5.468 19.95-8.683c0 0-4.297 16.31-14.313 17.232 0 0-7.556.397-5.637-8.549Z"/></svg>
